svgs/light/folder-medical.svg

<svg xmlns="http://www.w3.org/2000/svg" viewBox="0 0 512 512"><!-- Font Awesome Pro 6.0.0-alpha2 by @fontawesome - https://fontawesome.com License - https://fontawesome.com/license (Commercial License) --><path d="M448 96H272L226.746 50.746C214.742 38.742 198.465 32 181.49 32H64C28.654 32 0 60.656 0 96V416C0 451.344 28.654 480 64 480H448C483.346 480 512 451.344 512 416V160C512 124.656 483.346 96 448 96ZM480 416C480 433.645 465.645 448 448 448H64C46.355 448 32 433.645 32 416V96C32 78.355 46.355 64 64 64H181.49C190.039 64 198.074 67.328 204.117 73.375L249.373 118.625L258.746 128H448C465.645 128 480 142.355 480 160V416ZM336 256H288V208C288 199.164 280.836 192 272 192H240C231.164 192 224 199.164 224 208V256H176C167.164 256 160 263.164 160 272V304C160 312.836 167.164 320 176 320H224V368C224 376.836 231.164 384 240 384H272C280.836 384 288 376.836 288 368V320H336C344.836 320 352 312.836 352 304V272C352 263.164 344.836 256 336 256Z"/></svg>

<svg xmlns="http://www.w3.org/2000/svg" viewBox="0 0 512 512"><!--! Font Awesome Pro 6.3.0 by @fontawesome - https://fontawesome.com License - https://fontawesome.com/license (Commercial License) Copyright 2023 Fonticons, Inc. --><path d="M448 96h-176L226.7 50.75C214.7 38.74 198.5 32 181.5 32H64C28.65 32 0 60.66 0 96v320c0 35.34 28.65 64 64 64h384c35.35 0 64-28.66 64-64V160C512 124.7 483.3 96 448 96zM480 416c0 17.64-14.36 32-32 32H64c-17.64 0-32-14.36-32-32V96c0-17.64 14.36-32 32-32h117.5c8.549 0 16.58 3.328 22.63 9.375L258.7 128H448c17.64 0 32 14.36 32 32V416zM336 256H288V208C288 199.2 280.8 192 272 192h-32C231.2 192 224 199.2 224 208V256H176C167.2 256 160 263.2 160 271.1V304c0 8.836 7.164 15.1 16 15.1L224 319.1v47.1C224 376.8 231.2 384 240 384h32c8.836 0 16-7.166 16-16V319.1l48-.0012c8.836 0 16-7.162 16-15.1V271.1C352 263.2 344.8 256 336 256z"/></svg>
